X: 40111
T: Tico Tico
R: reel
M: 4/4
K: Aminor
E^DE|:F E2 A2 E^DE|F E2 ^G2 E^DE|FEdB ^GFD^C|C4- CA^G=G|
F A2 d2 FAd|E A2 c2 cB^A|BB,E^G BcB^A|B z z e z E^DE|
F E2 A2 E^DE|F E2 ^G2 E^DE|FEdB ^GFD^C|C4- CA^G=G|
F A2 d2 FAd|E A2 c2 EAc|BB,E^G edcB|1 A4- AE^DE:|2 A4- ABA^G||
|:[K:Cmaj]GCEG CEG^G|A2- A F2 BA^G|GB,DG B,DG^G|A2- A E2 ccc|
cBB B2 AAA|AFF F2 BBB|BGGB AFFA|G4- GBA^G|
GCEG CEG^G|A2- A F2 BA^G|GB,DG B,DG^G|A2- A E2 cB^A|
A^GAB dcBc|eGce g^f=fe|dcBA GFED|1 C4- CBA^G:|2 C4- CA^ce||
|:[K:Amaj] aAAg AAfA|fAAe AAfA|fAAe AAfA|fBBe BBfB|
aBBg BBfB|fBBe BBfB|aBBg BBfB|fAAe AAfA|
aAAg AAfA|fAAe AAfA|fecA fecA|B^ABc d4|
B,CDE FGAB|cd^de fe=dc|BAGF EDCB,|1 A,4- A,Ace:|2 A,8||

